X:1
T:Title
%%score { ( 1 3 ) | ( 2 4 ) }
L:1/8
M:4/4
K:Ab
V:1 treble nm="Grand Piano"
V:3 treble 
V:2 bass 
V:4 bass 
V:1
 z4 z2[Q:1/4=100] [CA]>[DB] | [Ec]>[Ec] [Ec]>[Fd] [Ec]>[DB] [CA]>[A,DF] | C4- [CA]2 [CEA]>[CEA] | %3
 G>F G>A BE d>d | [Ec]6 c>d | e>e c>[GB] [FA]2 [FB]>[Fc] | [Fd]>[Fd] [FB]>[FA] G2 F>E | %7
 [CE]<[CA] [FB][Fd] cA B>B |[M:3/4] [CA]6 |[M:1/4] e>d |[M:4/4] c<c e>c [DGB][CA] [EGc]>[DGB] | %11
 [EA]-[CE-A-] [CE-A-]>[CEA] [CE]2 [EA]>[EA] | [GB]<[GB] [GB]>[Ac] [Gd]E [EA]>[EB] | [Ec]6 z2 | %14
 c<c E>A c2 d>c |[M:9/8] [FB]>[FB][DF]- [DF]/[DF]/ [Fd]2- [Fd][Fc]>[FB] |[M:4/4] A<A G>F Ed c>B | %17
[M:3/4] [CA]6 |] %18
V:2
 z4 z2 [A,,E,]>[A,,E,] | [A,,A,]>[A,,A,] [A,,A,]>[A,,A,] [A,,A,]>[A,,E,] [A,,E,]>A,, | %2
 z4 E,2 A,,>A,, | [E,B,E]>[E,A,E] [E,B,E]>[E,CE] [E,DE][E,G,] [E,B,E]>[E,B,E] | %4
 [A,,A,]6[K:treble] [A,E]>[A,B,E] | [A,CA]>[A,CA] [A,EA]>[K:bass][E,D] [F,C]2 [D,B,]>[C,=A,] | %6
 [B,,B,]>[B,,B,] [D,B,]>[D,B,] [E,B,E]2 [E,A,D]>[E,G,D] | %7
 [A,,A,]<[A,,A,] [D,A,][D,A,] [E,A,E][E,A,C] [E,G,D]>[E,G,D] |[M:3/4] [A,,A,]6 | %9
[M:1/4][K:treble] [A,CA]>[A,FA] |[M:4/4] [A,EA]<[A,EA] [A,CA]>[A,EA][K:bass] E,E, E,>E, | %11
 A,,A,, A,,>G,, [A,,A,]2 [A,C]>[A,C] | [E,E]<[E,E] [E,E]>[E,E] [E,B,][D,G,] [C,A,]>[B,,G,] | %13
 [A,,A,]A,, C,>E, z2[K:treble] [A,CA]>[A,FA] | %14
 [A,EA]<[A,EA] [A,C]>[A,CE] [A,EA]2 [A,F]>[K:bass][A,E] | %15
[M:9/8] [D,D]>[D,D][D,A,]- [D,A,]/[D,A,]/ [D,A,]2- [D,A,][D,A,]>[D,D] | %16
[M:4/4] [E,CE]<[E,CE] [E,B,E]>[E,A,E] [E,G,][E,B,E] [E,A,E]>[E,G,D] |[M:3/4] [A,,A,]6 |] %18
V:3
 x8 | x8 | [A,E]4 z4 | x8 | x8 | x8 | x8 | x8 |[M:3/4] x6 |[M:1/4] x2 |[M:4/4] x8 | .C2 z2 z4 | %12
 x8 | z A, A,>A, A,2 e>d | x8 |[M:9/8] x9 |[M:4/4] x8 |[M:3/4] x6 |] %18
V:4
 x8 | x8 | A,,6 z2 | x8 | x6[K:treble] x2 | x7/2[K:bass] x9/2 | x8 | x8 |[M:3/4] x6 | %9
[M:1/4][K:treble] x2 |[M:4/4] x4[K:bass] x4 | x8 | x8 | x6[K:treble] x2 | x15/2[K:bass] x/ | %15
[M:9/8] x9 |[M:4/4] x8 |[M:3/4] x6 |] %18

